X:14
T:GREEN SLEEVES -- JIG.
R:jig
B:Coles pg. 75.6
Z:John B. Walsh, <walsh:mat:h.ubc.ca> 5/17/02
M:6/8
L:1/8
K:C
(vA/B/|c2.c) cd"4"e | dBG GAB | cAA ABc | BGE E2 (A/B/ |
 c2.c) cd"4"e | dBG GAB | cBA GE^G | "4"A3 A,2 :|
(e/f/ | g)ag gfe | dBG GBd | aba aba | gee e2(e/f/ |
g)ag gfe | dBG GAB | cBA GE^G | A3 A,2 :|
